X:1
T: Marion Barrie
C:
R:Strathspey
Q: 128
K:G
M:4/4
L:1/16
|:B3A|G4 G4 D4 B,D3|E3F G3E D6 GA|B4 Dd3 G6 AB|c3B AG3 A4 B3c|
d4 d4 G4 ((3G2A2B2) |c3d Bc3 A4 B4|D4 D4 EG3 B3A|G12 B3d|
e4 e4 B4 Bd3|e3f g3d B6 g2|f3e dB3 A3G EG3|A3B AE3 A4 B3c|
d4 d4 G4 ((3G2A2B2) |c3d Bc3 A4 B4|D4 D4 EG3 B3A|G12:|
